X:1
T:Die Obrigkeit ist Gottes Gabe
T:BWV 119/5
T:Johann Sebastian Bach arr. André Papillon 
%%score 1 { ( 2 4 ) | 3 }
L:1/8
Q:3/8=60
M:6/8
K:F
V:1 treble nm="Flûte" snm="Fl."
V:2 treble nm="Piano" snm="Pia."
V:4 treble 
V:3 bass 
V:1
 z2 d (ga)b | ad c'2 d'/c'/b/a/ | (bg)a (bg)d | (_ec')a f(e/d/)e | dB/c/d/_e/ fga | %5
 .b.b.b bc'/b/a/g/ | af/g/a/b/ c'/b/a/b/c'/d'/ | ._e'.e'.e' e'f'/e'/d'/c'/ | %8
 d'c'/b/a/g/ ^f/g<gf/4g/4 | ad f2 g/f/_e/d/ | _ec c'2 d'/c'/b/a/ | bga Ta2 g | gB/c/d/B/ G2 z | %13
 z6 | GBd gab | c'_e'/d'/c'/b/ aa3/2g/4a/4 | bB/c/d/_e/ fga | .b.b.b .b.b.b | .b.b.b .b.b.b | %19
 b3- b(d'/c'/b/a/) | g(b/a/g/f/) ece | f3 z d/c/B/A/ | BG/A/B/c/ def | .g.g.g g(a/g/f/e/) | %24
 .f.f.f fg/f/e/d/ | .e.e.e e(f/e/d/^c/) | a(g/f/e/d/) ^c/d<Tdc/4d/4 | eA c2 d/c/B/A/ | %28
 BG g2 (a/g/f/e/) | (fd)e ^c2 d | d2 A def | eA g2 a/g/f/e/ | fde fdA | Bge cB/A/B | A2 z z3 | z6 | %36
 z2 F Bcd | cF _e2 f/e/d/c/ | dBc d3- | d(_e/d/c/B/) c3- | cd/c/B/_A/ B3- | BB/c/d/_e/ .f.f.f | %42
 fg/f/=e/d/ c3- | cc/d/e/f/ .g.g.g | g(_a/g/f/_e/) (a/g/f/e/d/c/) | =B2 z z3 | z c/d/_e/f/ ga=b | %47
 .c'.c'.c' c'd'/c'/=b/a/ | =bG/A/=B/c/ d/c/B/c/d/_e/ | .f.f.f f(g/f/_e/d/) | _ed/c/_a d2 c | %51
 c2 z z3 | z6 | z/ d/e/^f/g/a/ .b.b.b | bc'/b/a/g/ .a.a.a | ab/a/g/^f/ .g.g.g | %56
 g(a/g/^f/e/) fTf3/2e/4f/4 | g2 z z3 | z6 | z2 d (ga)b | ad c'2 d'/c'/b/a/ | (bg)a (bg)d | %62
 (_ec')a f(e/d/)e | dB/c/d/_e/ fga | .b.b.b bc'/b/a/g/ | af/g/a/b/ c'/b/a/b/c'/d'/ | %66
 ._e'.e'.e' e'f'/e'/d'/c'/ | d'c'/b/a/g/ ^f/g<gf/4g/4 | ad f2 g/f/_e/d/ | _ec c'2 d'/c'/b/a/ | %70
 bga Ta2 g | g3 z3 |] %72
V:2
 z3 [B,DG]3 | [CDA]6 | [DGB]3 [B,G]3 | [C_EG]3 [CEF]3 | [B,DF]6 | [DB]3 G3 | FAF AcA | G3 AFA | %8
w: ||||||||
 [DB]2 [GA_e] [^FAd]2 [Gc] | d3 d3 | [_EGc]3 [DA]3 | B2 A G ^F2 | [B,DG]2 D (GA) B | AD A (AB) c | %14
w: ||||* Die Ob- * rig-|keit _ ist Got- * tes|
 B G A Bc d | (Gc) A F_E/D/ E | D2 z z3 | z2 F GA B | (FD) F GA B | FB,/C/D/_E/ FGA | %20
w: Ga- be, ja sel- * ber|Got- * tes E- * * ben-|bild,|Die Ob- * rig-|keit _ ist Got- * tes|Ga- * * * * * * *|
 B/A/G/F/E/F/ G/A/B/d/c/B/ | A G/F/ A A^F D | z2 d BG A | BE G A3- | AB/A/G/F/ G3- | %25
w: |* be, _ ja sel- * ber,|ja sel- * ber|Got- * tes E-||
 GA/G/F/E/ F/G/ TG3/2F/4G/4 | (AD) B AG F | E3 ^F3 | G^C D E F G | AG/F/ B E2 D | D2 z [DFA]3 | %31
w: * * * * * * * ben- * *|bild, _ ja sel- * ber|Got- tes|E- * ben- bild, sel- ber|Got- * * tes E- ben-|bild. *|
 [EGA]6 | [DFA]6 | [B,DG]3 [B,CG]3 | [A,CF]2 C FG A | GC G GA B | A F z [B,F]3 | [CF]3 AFA | %38
w: |||* Wer ih- * re|Macht _ nicht will _ er-|mes- sen, *||
 [DB]2 F BG F | (_Ec) A FE/D/E | D B, D _EF G | _A2 A AB/A/ G/F/ | G _E c FG _A | %43
w: * Wer ih- * re|Macht _ nicht er _ _ _|mes- sen, der muss _ auch|Got- tes gar _ _ ver- *|ges- sen, der muss _ auch|
 B2 B Bc/B/ _A/G/ | _A F c =B/c/ Tc3/2B/4c/4 | dG _e c=B c | c2 z [C_EG]3 | GF_E F3 | %48
w: Got- tes gar _ _ ver- *|ges- sen, wie wür- * de _ _|sonst _ sein Wort _ er-|füllt, *||
 [=B,DF]3 [B,DF]3 | [DG]3 =BGF | _ECD [=B,F]3 | [C_E]2 G (cA) G | (^FG) A D (B/A/B) | A2 D (BG) F | %54
w: |||* wie wür- * de|sonst _ sein Wort er- * *|füllt. Die Ob- * rig-|
 (_EC) D (EF/E/) (D/C/) | D B, D GA B | c_e d (cB/A/) d | B c2 ^F/G/ G3/2F/4G/4 | (AD) B (G^F) G | %59
w: keit _ ist Got- * * tes _|Ga- be, ja sel- * ber|Got- * tes E- * * ben-|bild, ja sel- * ber _ _|Got- * tes E- * ben-|
 G2 z [B,DG]3 | [CDA]6 | [DGB]3 [B,G]3 | [C_EG]3 [CEF]3 | [B,DF]6 | [DB]3 G3 | FAF AcA | G3 AFA | %67
w: bild. *||||||||
 [DB]2 [GA_e] [^FAd]2 [Gc] | d3 d3 | [_EGc]3 [DA]3 | B2 A G ^F2 | [B,DG]3 z3 |] %72
w: |||||
V:3
 G,,3 G,3- | G,3 ^F,3 | G,3 G,,3 | C,3 A,,3 | B,,3- B,,(D/C/B,/A,/) | G,(B,/A,/G,/F,/) E,C,E, | %6
 F,3- F,_E,D, | C,(C/B,/A,/G,/) F,A,F, | B,2 C D2 _E | D3 =B,3 | C3 ^F,3 | G,B,,C, D,C,D, | %12
 G,,3 G,3- | G,3 ^F,3 | G,3- G,2 F, | _E,3 F,3 | B,,3- B,,B,,C, | %17
 D,B,,/C,/D,/B,,/ _E,(F,/E,/D,/C,/) | D,B,,/C,/D,/B,,/ _E,F,/E,/D,/C,/ | D,3- D,B,G, | E,3 C,3 | %21
 F,3 ^F,3 | G,3- G,(B,/A,/G,/F,/) | E,(G,/F,/E,/D,/) ^C,A,,C, | D,F,D, =B,,E,G, | ^C,A,,C, D,2 E, | %26
 F,2 G, A,3- | A,(A,/G,/^F,/E,/) D,3 | G,,G,/F,/E,/D,/ ^C,2 A,, | D,F,,G,, A,,G,,A,, | D,,3 D,3- | %31
 D,3 ^C,3 | D,3 D,,3 | G,,3 E,,3 | F,,3 F,3- | F,3 E,3 | F,2 _E, D,(E,/D,/C,/B,,/) | %37
 A,,(C,/B,,/A,,/G,,/) F,,A,,F,, | B,,D,/C,/B,,/A,,/ G,,B,,G,, | C,3 A,,F,,A,, | %40
 B,,B,_A, G,A,/G,/F,/_E,/ | D,(F,/_E,/D,/C,/) B,,D,B,, | %42
 _E,(E,/D,/C,/B,,/) _A,,(B,,/A,,/G,,/F,,/) | E,,2 G,, C,,E,,C,, | F,,F,_E, D,2 C, | %45
 G,=B,,C, G,2 G,, | C,,3- C,,C,/=B,,/C,/D,/ | _E,F,G, _A,G,F, | G,3- G,F,/_E,/D,/C,/ | %49
 =B,,(D,/C,/B,,/A,,/) G,,B,,G,, | C,_E,F, G,F,G, | C,CD _E2 z | z DC B,A,G, | D,D/C/B,/A,/ G,B,G, | %54
 C,3 F,A,F, | B,,3 _E,_E/D/C/B,/ | A,CA, D,D/C/B,/A,/ | %57
 (G,/F,/_E,/D,/C,/B,,/) (A,,/B,,/C,/B,,/A,,/G,,/) | ^F,,E,,/D,,/G,, C,D,D,, | G,,3 G,3- | %60
 G,3 ^F,3 | G,3 G,,3 | C,3 A,,3 | B,,3- B,,(D/C/B,/A,/) | G,(B,/A,/G,/F,/) E,C,E, | F,3- F,_E,D, | %66
 C,(C/B,/A,/G,/) F,A,F, | B,2 C D2 _E | D3 =B,3 | C3 ^F,3 | G,B,,C, D,C,D, | G,,3 z3 |] %72
V:4
 x6 | x6 | x3 D2 F | x6 | x6 | x3 CEC | x6 | _E6 | x6 | ^FGA [=FG]3 | x6 | D2 _E D2 C | x6 | x6 | %14
 x6 | x6 | x6 | x6 | x6 | x6 | x6 | x6 | x6 | x6 | x6 | x6 | x6 | x6 | x6 | x6 | x6 | x6 | x6 | %33
 x6 | x6 | x6 | x6 | x3 C2 _E | x6 | x6 | x6 | x6 | x6 | x6 | x6 | x6 | x6 | C3 C3 | x6 | %49
 x3 D2 =B, | G,3 x3 | x6 | x6 | x6 | x6 | x6 | x6 | x6 | x6 | x6 | x6 | x3 D2 F | x6 | x6 | %64
 x3 CEC | x6 | _E6 | x6 | ^FGA [=FG]3 | x6 | D2 _E D2 C | x6 |] %72

